src/components/00-materials/images-raw/Flood House.svg

<svg width="96" height="96" viewBox="0 0 96 96" fill="none" xmlns="http://www.w3.org/2000/svg">
<path d="M39.8199 63.67V45.34H56.1799V63.67M74.3599 62.13V37.2V62.13ZM21.6399 37.23V62.13V37.23ZM17.9999 34.86C17.9992 34.4717 18.0892 34.0887 18.2628 33.7414C18.4364 33.3942 18.6889 33.0923 18.9999 32.86L45.7999 12.73C46.4361 12.2575 47.2075 12.0024 47.9999 12.0024C48.7924 12.0024 49.5638 12.2575 50.1999 12.73L76.9999 32.87C77.311 33.1023 77.5634 33.4042 77.7371 33.7514C77.9107 34.0987 78.0007 34.4817 77.9999 34.87C77.9899 35.3457 77.8485 35.8094 77.5913 36.2098C77.3341 36.6102 76.9713 36.9316 76.5428 37.1386C76.1143 37.3456 75.637 37.4301 75.1635 37.3826C74.69 37.3352 74.2389 37.1578 73.8599 36.87L48.5499 17.87C48.3924 17.7484 48.199 17.6824 47.9999 17.6824C47.8009 17.6824 47.6075 17.7484 47.4499 17.87L21.9999 37C21.6266 37.271 21.1861 37.4343 20.7263 37.4721C20.2666 37.51 19.8053 37.4209 19.3927 37.2146C18.9801 37.0083 18.632 36.6927 18.3864 36.3022C18.1408 35.9117 18.0072 35.4612 17.9999 35V34.86Z" stroke="#00008F" stroke-width="2" stroke-linecap="round" stroke-linejoin="round"/>
<path d="M48.9191 36.3168C50.8637 35.807 52.0303 33.8303 51.5247 31.9017C51.0191 29.9732 49.0328 28.823 47.0882 29.3328C45.1436 29.8426 43.9771 31.8193 44.4827 33.7479C44.9882 35.6764 46.9745 36.8266 48.9191 36.3168Z" stroke="#00008F" stroke-width="2" stroke-linecap="round" stroke-linejoin="round"/>
<path d="M86 61.48C84.3499 63.0943 82.1333 63.9982 79.825 63.9982C77.5166 63.9982 75.3 63.0943 73.65 61.48L71 58.74C70.5173 58.2648 69.8672 57.9985 69.19 57.9985C68.5127 57.9985 67.8626 58.2648 67.38 58.74L64.75 61.48C63.0999 63.0943 60.8833 63.9982 58.575 63.9982C56.2666 63.9982 54.05 63.0943 52.4 61.48L49.78 58.74C49.2973 58.2648 48.6472 57.9985 47.97 57.9985C47.2927 57.9985 46.6426 58.2648 46.16 58.74L43.54 61.48C41.8899 63.0943 39.6733 63.9982 37.365 63.9982C35.0566 63.9982 32.84 63.0943 31.19 61.48L28.56 58.74C28.0773 58.2648 27.4272 57.9985 26.75 57.9985C26.0727 57.9985 25.4226 58.2648 24.94 58.74L22.32 61.48C20.6699 63.0943 18.4533 63.9982 16.145 63.9982C13.8366 63.9982 11.62 63.0943 9.96997 61.48M86 70.48C84.3499 72.0943 82.1333 72.9982 79.825 72.9982C77.5166 72.9982 75.3 72.0943 73.65 70.48L71 67.74C70.5173 67.2648 69.8672 66.9985 69.19 66.9985C68.5127 66.9985 67.8626 67.2648 67.38 67.74L64.75 70.48C63.0999 72.0943 60.8833 72.9982 58.575 72.9982C56.2666 72.9982 54.05 72.0943 52.4 70.48L49.78 67.74C49.2973 67.2648 48.6472 66.9985 47.97 66.9985C47.2927 66.9985 46.6426 67.2648 46.16 67.74L43.54 70.48C41.8899 72.0943 39.6733 72.9982 37.365 72.9982C35.0566 72.9982 32.84 72.0943 31.19 70.48L28.56 67.74C28.0773 67.2648 27.4272 66.9985 26.75 66.9985C26.0727 66.9985 25.4226 67.2648 24.94 67.74L22.32 70.48C20.6699 72.0943 18.4533 72.9982 16.145 72.9982C13.8366 72.9982 11.62 72.0943 9.96997 70.48M86 79.48C84.3499 81.0943 82.1333 81.9982 79.825 81.9982C77.5166 81.9982 75.3 81.0943 73.65 79.48L71 76.74C70.5173 76.2648 69.8672 75.9985 69.19 75.9985C68.5127 75.9985 67.8626 76.2648 67.38 76.74L64.75 79.48C63.0999 81.0943 60.8833 81.9982 58.575 81.9982C56.2666 81.9982 54.05 81.0943 52.4 79.48L49.78 76.74C49.2973 76.2648 48.6472 75.9985 47.97 75.9985C47.2927 75.9985 46.6426 76.2648 46.16 76.74L43.54 79.48C41.8899 81.0943 39.6733 81.9982 37.365 81.9982C35.0566 81.9982 32.84 81.0943 31.19 79.48L28.56 76.74C28.0773 76.2648 27.4272 75.9985 26.75 75.9985C26.0727 75.9985 25.4226 76.2648 24.94 76.74L22.32 79.48C20.6699 81.0943 18.4533 81.9982 16.145 81.9982C13.8366 81.9982 11.62 81.0943 9.96997 79.48" stroke="#00008F" stroke-width="2" stroke-linecap="round" stroke-linejoin="round"/>
</svg>

<svg width="96" height="96" viewBox="0 0 96 96" fill="none" xmlns="http://www.w3.org/2000/svg"><path d="M39.82 63.67V45.34h16.36v18.33m18.18-1.54V37.2v24.93zm-52.72-24.9v24.9-24.9zM18 34.86a2.492 2.492 0 011-2l26.8-20.13a3.69 3.69 0 014.4 0L77 32.87a2.49 2.49 0 011 2 2.58 2.58 0 01-4.14 2l-25.31-19a.9.9 0 00-1.1 0L22 37a2.52 2.52 0 01-4-2v-.14z" stroke="#00008F" stroke-width="2" stroke-linecap="round" stroke-linejoin="round"/><path d="M48.92 36.317c1.944-.51 3.11-2.487 2.605-4.415-.506-1.929-2.492-3.079-4.437-2.57-1.944.51-3.11 2.487-2.605 4.416.505 1.928 2.492 3.079 4.436 2.569zM86 61.48a8.83 8.83 0 01-12.35 0L71 58.74a2.58 2.58 0 00-3.62 0l-2.63 2.74a8.83 8.83 0 01-12.35 0l-2.62-2.74a2.58 2.58 0 00-3.62 0l-2.62 2.74a8.83 8.83 0 01-12.35 0l-2.63-2.74a2.58 2.58 0 00-3.62 0l-2.62 2.74a8.83 8.83 0 01-12.35 0m76.03 9a8.83 8.83 0 01-12.35 0L71 67.74a2.58 2.58 0 00-3.62 0l-2.63 2.74a8.83 8.83 0 01-12.35 0l-2.62-2.74a2.58 2.58 0 00-3.62 0l-2.62 2.74a8.83 8.83 0 01-12.35 0l-2.63-2.74a2.58 2.58 0 00-3.62 0l-2.62 2.74a8.83 8.83 0 01-12.35 0m76.03 9a8.83 8.83 0 01-12.35 0L71 76.74a2.58 2.58 0 00-3.62 0l-2.63 2.74a8.83 8.83 0 01-12.35 0l-2.62-2.74a2.58 2.58 0 00-3.62 0l-2.62 2.74a8.83 8.83 0 01-12.35 0l-2.63-2.74a2.58 2.58 0 00-3.62 0l-2.62 2.74a8.83 8.83 0 01-12.35 0" stroke="#00008F" stroke-width="2" stroke-linecap="round" stroke-linejoin="round"/></svg>
